!!!OTL: 1062. Kranzsingen. / [Raethsellied.]
!!!ARE: Europa, Mitteleuropa, Deutschland
!!!SCT: E1062A
!!!YEM: Copyright 1995, estate of Helmut Schaffrath.
**kern
*ICvox
*M4/2
*met(c)
*k[b-]
*F:
{4cc
=1
2cc
2cc
2dd
2cc
=2
2cc
2b-
2a
4r}
{4a
=3
2a
2cc
2cc
2b-
=4
2a
2g
2f
4r}
{4f
=5
2f
2g
2a
2a
=6
2f
2g
2a
4r}
{4a
=7
2a
2cc
2cc
2a
=8
2b-/
2g
2f
4r}
==
!!!AGN: Raetsel -, Brauchtums - Lied, Reigen - Tanz
!!!ONB: ESAC (Essen Associative Code) Database: ERK3
!!!AMT: simple quadruple
!!!AIN: vox
!!!EED: Helmut Schaffrath
!!!EEV: 1.0
!!!GTL: Raethsel-, Wett- und Wunschlieder, nebst Luegenmaerchen.
!!!URL-scan: https://rosdok.uni-rostock.de/mcrviewer/recordIdentifier/rosdok_ppn745177999/iview2/phys_0006.iview2?x=0&y=1894.7990043558711&scale=0.6479838709677419&rotation=0&layout=singlePageLayout
!!!ENC: Anna Maria Matuszewska
!!!EEV: 2024/12/23
*-
